X:6
C:Traditional
S:Louis Killen
K:Ddor
M:3/4
L:1/8
A2 | A4 A2 | F2 G2 (3(ABA) | G2 E2 D2 | C3 D E2 | F3 E D2 | E4 C2 | (D6 | D4) F2 |
F2 E2 D2 | E4 c2 | d2 A2 c2 | c4 A2 | A3 G F2 | c4 d2 | (A6 | A4) A2 |
A2 G2 F2| G4 c2 | d2 A2 c2 | c4 A2 | A3 G F2 | c4 d2 | (A6 | A4) FG |
A3 A A2 | F2 G2 A2 | G2 E2 D2 | C2 D2 E2 | F3 E D2 | E4 C2 | (D6 | D4) c2 |
(c6 | c4) A2 | (G6 | G4) A2 | A2 G2 F2 | D4 A,2 | (C6 | C4) FG |
A2 A2 A2 | F2 G2 A2 | G2 E2 D2 | C2 D2 E2 | F2 E2 D2 | E4 C2 | (D6 | D4) :|
